X: 12748
T: Father Newman's
R: reel
M: 4/4
K: Gmajor
Bd|:~e3 g edBA|~G3 B d2 (3Bcd|ea ~a2 bagb|agef gedg|
eged edBA|~G3 B d2 Bd|eaaf gedg|edBA G2 (3Bcd:|
dG ~G2 edBc|dg ~g2 fgaf|dggf gbag|~f3 e fgfe|
dG ~G2 edBc|dg ~g2 fgaf|dggf gedg|edBA G3:|

